X: 13152
T: the Auld Goodman
%R: jig
B: James Oswald "The Caledonian Pocket Companion" v.1 b.3 p.15 #2
S: https://ia800501.us.archive.org/18/items/caledonianpocket01rugg/caledonianpocket01rugg_bw.pdf
Z: 2020 John Chambers <jc:trillian.mit.edu>
M: 6/8
L: 1/8
K: D
|: "_Brisk"\
ded Tc2A | def Te2A | ded Tc2A | BGB A3 ::\
dcd efg | (f/g/a)g Tf2A | dcd efg | f2b a3 |\
dcd efg |
(f/g/a)g Tf2e | d2a c2a | BGB A3 ::\
(d2B) (c2A) | (d2f) (ef/^g/)a | (d2B) (c2A) | (dB)^G A3 ::\
(d/e/f)f (e/f/g)g | (f/g/a)g Tf2A | (d2f) (e2g) |
(fd)b a3 |\
(df)f egg | (fa)a gfe | df/^g/a Tc2a | BGB A3 ::\
D2d cca | f2d (e/d/c/B/)A | d'2d caA | dB^G A3 :|
|:\
(f/e/f/g/)f (g/f/g/a/)g | agf e2A | (d/c/d/e/)d ef^g | ab^g a3 |\
f(d/e/)f =g(e/f/)g | agf Te2A | dda cca | BGB A3 :|
